X: 23408
T: Les Amantes Infideles
R: waltz
M: 3/4
K: Amajor
A2 c2|e2>f2 ed|e2>f2 ed|e2 d2 c2|e2 d2 c2|
d2>e2 fd|e2>f2 ed|e2>f2 ed|e6|e2 A2 c2|
e2>f2 ed|e2>f2 ed|e2 d2 c2|e2 d2 c2|d2>e2 fe|d2>e2 fe|d6|d2 d2 f2|
a2>b2 ag|a2>b2 ag|a6|c'2 b2 a2|c'2 b2 a2|e2>f2 ed|e2>f2 ed|
e2 d2 c2|c2 B2 c2|d6|d2 f2 e2|d4 B2|A6|G6|F6|E z z2 z2|z2 c'2 b2||
b4 a2|e4 c2|e6|e2 c'2 b2|b4 a2|e2>f2 ge|f6|f2 d2 e2|
f2>e2 f2|a2 g2 f2|a z a^g a2|e6|e4 d2|c4 B2|A^G AB cd|e2 c'2 b2|
b4 a2|e4 c2|e6|e2 c'2 b2|b4 a2|e2>f2 ge|f6|f2 d2 e2|
f2>e2 f2|d2 e2 f2|e2 d2 c2|c2 B2 c2|e4 d2|c4 B2|A6|A z z2 z2||
a2> ^g2 a2|c'4 ^g2|^g2 a4|a4 z2|^f6|^g4 e2|c6|c4 z2|
a2> ^g2 a2|c'4 ^g2|^g2 a4|a4 z2|^f6|^g4 e2|A6|A z||

